X:1008
T:Baille de Los Pollos (CT 366)
R:Panderu
C:Tradicional
S:Música Tradicional Asturiana, (C) Tello & Tito. Asturies, 2001.
S:http://pagina.de/MusTradAst <telloytito@asturies.org>
N:Canción de Baille de Los Pollos, transcrita en Llamo, ayuntamiento de Riosa.
O:Llamo (Riosa)
A:Asturies
Z:Cancioneru de Torner 366
M:2/4
L:1/8
Q:1/4=160
W:Las ventanas de mi cuarto,
W:todas las cierra mi padre;
W:tengo el amor carpintero:
W:con facilidad las abre.
K:G
|GA Bc|d2 cB|A2 dd|
d3 B|c2 BA|G2 AA|
A3 F|G2 FE|D2 GG|
G3 B|A2 GG|G2 z2||


